X:1
T:13.  Bei stiller Nacht
T:Hugo Distler
T:Friedrich von Spee (1591 - 1635)
T:13.  In Dark of Night Bei stiller Nacht Passiontide
T:Bärenreiter
T:Bärenreiter
T:Bärenreiter
T:Bärenreiter
T:Bärenreiter
T:Bärenreiter
T:Bärenreiter
T:Bärenreiter
C:Hugo Distler
Z:Friedrich von Spee
Z:(1591 - 1635)
Z:Bärenreiter
%%score [ 1 2 3 4 ]
L:1/8
Q:1/4=76
M:3/2
K:C
V:1 treble nm="MusicXML Part"
V:2 treble nm="Soprano 1"
V:3 treble nm="Soprano 2"
V:4 treble nm="Alto"
V:1
 c2 | c2 c2 B6 A2 | A2 G2 !breath!A4 A2 A2- | A2 A2 (G3 F E2) D2 | E4 E4 || z4 | z12 | z12 | z12 | %9
w: 1.  In|dark of night, by|watch- man's light a voice|_ be- gan _ _ la-|ment- ing;|||||
w: 2.  It|was the voice of|God's own Son, His head|_ was bowed _ _ in|griev- ing,|||||
w: 3.  "Fare-|well, fare- well and|sweet good night, o dear-|* est Moth- * * er,|Ma- ry;|||||
w: 4.  "The|sil- ver moon has|set too soon, for sor-|* row no _ _ more|shin- ing,|||||
w: 5.  "No|bird in song nor|cheer- ful sound is heard|_ to lift _ _ my|sor- rows;|||||
 z8 || B4 | c2 d2 e4 c2 B2- | B2 A2 !breath!^G2 E2 ^F2 =G2 | (A3 B c2 d2) c2 (B2- | BA ^G2) A4 || %15
w: |I|list- ened hard un- to|_ each word; my eyes in|si- * * * lence clos-|* * * ing.|
w: |and|pale His face as was|_ the moon; the stones to|pit- * * * y mov-|* * * ing.|
w: |is|no one here to share|_ my plight, to help my|pain _ _ _ to bur-|* * * y?|
w: |the|stars from play have gone|_ a- way, and now with|me _ _ _ are cry-|* * * ing.|
w: |the|wild- est beasts now grieve|_ with me in rocks and|caves _ _ _ and hol-|* * * lows."|
 z4 | z12 | z12 | z12 | z8 |] %20
w: |||||
w: |||||
w: |||||
w: |||||
w: |||||
V:2
 z2 | z12 | z12 | z12 | z8 ||"^Choir always as echo, very softly" c4 | c2 c2 B6 A2 | %7
w: |||||1.  In|dark of night, by|
w: |||||2.  It|was the voice of|
w: |||||3.  "Fare-|well, fare- well and|
w: |||||4.  "The|sil- ver moon has|
w: |||||5.  "No|bird in song nor|
 A2 G2 !breath!A4 A2 A2- | A2 A2 G3 F (E4- | E2 D2) E4 || z4 | z12 | z12 | z12 | z8 || B4 | %16
w: watch- man's light a voice|_ be- gan la- ment-|* * ing;||||||I|
w: God's own Son, His head|_ was bowed in griev-|* * ing,||||||and|
w: sweet good night, o dear-|* est Moth- er, Ma-|* * ry;||||||is|
w: set too soon, for sor-|* row no more shin-|* * ing,||||||the|
w: cheer- ful sound is heard|_ to lift my sor-|* * rows;||||||the|
 c2 d2 e4 c2 B2- | B2 A2 !breath!^G2 E2 ^F2 =G2 | (A3 B c2 d2) c2 (B2- | BA ^G2) A4 |] %20
w: list- ened hard un- to|_ each word; my eyes in|si- * * * lence clos-|* * * ing.|
w: pale His face as was|_ the moon; the stones to|pit- * * * y mov-|* * * ing.|
w: no one here to share|_ my plight, to help my|pain _ _ _ to bur-|* * * y?|
w: stars from play have gone|_ a- way, and now with|me _ _ _ are cry-|* * * ing.|
w: wild- est beasts now grieve|_ with me in rocks and|caves _ _ _ and hol-|* * * lows."|
V:3
 z2 | z12 | z12 | z12 | z8 || E4 | F2 G2 A4 G4 | F2 F2 !breath!E4 E2 F2- | F2 F2 (E3 DEF) G2 | %9
w: |||||1.  In|dark of night, by|watch- man's light a voice|_ be- gan _ _ _ la-|
w: |||||2.  It|was the voice of|God's own Son, His head|_ was bowed _ _ _ in|
w: |||||3.  "Fare-|well, fare- well and|sweet good night, o dear-|* est Moth- * * * er,|
w: |||||4.  "The|sil- ver moon has|set too soon, for sor-|* row no _ _ _ more|
w: |||||5.  "No|bird in song nor|cheer- ful sound is heard|_ to lift _ _ _ my|
 F4 E4 || z4 | z12 | z12 | z12 | z8 || D4 | (E2 ^F2) G2 A4 A2 | G2 ^F2 !breath!B4 B4 | %18
w: ment- ing;||||||I|list- * ened hard un-|to each word; my|
w: griev- ing,||||||and|pale _ His face as|was the moon; the|
w: Ma- ry;||||||is|no _ one here to|share my plight, to|
w: shin- ing,||||||the|stars _ from play have|gone a- way, and|
w: sor- rows;||||||the|wild- * est beasts now|grieve with me in|
 ^F2 G2 (A4 G2) F2 | E4 E4 |] %20
w: eyes in si- * lence|clos- ing.|
w: stones to pit- * y|mov- ing.|
w: help my pain _ to|bur- y?|
w: now with me _ are|cry- ing.|
w: rocks and caves _ and|hol- lows."|
V:4
 z2 | z12 | z12 | z12 | z8 || A,4 | C2 B,2 E4 D2 C2- | C2 B,2 !breath!A,4 E2 E2- | %8
w: |||||1.  In|dark of night, by watch-|* man's light a voice|
w: |||||2.  It|was the voice of God's|_ own Son, His head|
w: |||||3.  "Fare-|well, fare- well and sweet|_ good night, o dear-|
w: |||||4.  "The|sil- ver moon has set|_ too soon, for sor-|
w: |||||5.  "No|bird in song nor cheer-|* ful sound is heard|
 E2 D2 E2 (E3 D) (C2- | C2 B,2) A,4 || z4 | z12 | z12 | z12 | z8 || G,4 | C2 B,2 E2 F3 E D2 | %17
w: _ be- gan la- * ment-|* * ing;||||||I|list- ened hard un- to each|
w: _ was bowed in _ griev-|* * ing,||||||and|pale His face as was the|
w: * est Moth- er, _ Ma-|* * ry;||||||is|no one here to share my|
w: * row no more _ shin-|* * ing,||||||the|stars from play have gone a-|
w: _ to lift my _ sor-|* * rows;||||||the|wild- est beasts now grieve with|
 !breath!E4 E4 D4- | D2 C2 (F3 EDC) D2 | E4 A,4 |] %20
w: word; my eyes|_ in si- * * * lence|clos- ing.|
w: moon; the stones|_ to pit- * * * y|mov- ing.|
w: plight, to help|_ my pain _ _ _ to|bur- y?|
w: way, and now|_ with me _ _ _ are|cry- ing.|
w: me in rocks|_ and caves _ _ _ and|hol- lows."|

